images/beach.svg

<?xml version="1.0" encoding="iso-8859-1"?>
<!-- Generator: Adobe Illustrator 19.0.0, SVG Export Plug-In . SVG Version: 6.00 Build 0)  -->
<svg xmlns="http://www.w3.org/2000/svg" xmlns:xlink="http://www.w3.org/1999/xlink" version="1.1" id="Capa_1" x="0px" y="0px" viewBox="0 0 512 512" style="enable-background:new 0 0 512 512;" xml:space="preserve" width="512px" height="512px">
<g>
	<g>
		<path d="M503.467,375.467H8.533C3.823,375.467,0,379.281,0,384v34.133c0,4.719,3.823,8.533,8.533,8.533h494.933    c4.719,0,8.533-3.814,8.533-8.533V384C512,379.281,508.186,375.467,503.467,375.467z M494.933,409.6H17.067v-17.067h477.867V409.6    z" fill="#b2b8bc"/>
	</g>
</g>
<g>
	<g>
		<path d="M42.667,409.6H8.533c-4.71,0-8.533,3.814-8.533,8.533v85.333C0,508.186,3.823,512,8.533,512h34.133    c4.71,0,8.533-3.814,8.533-8.533v-85.333C51.2,413.414,47.377,409.6,42.667,409.6z M34.133,494.933H17.067v-68.267h17.067V494.933    z" fill="#b2b8bc"/>
	</g>
</g>
<g>
	<g>
		<path d="M503.467,409.6h-34.133c-4.719,0-8.533,3.814-8.533,8.533v85.333c0,4.719,3.814,8.533,8.533,8.533h34.133    c4.719,0,8.533-3.814,8.533-8.533v-85.333C512,413.414,508.186,409.6,503.467,409.6z M494.933,494.933h-17.067v-68.267h17.067    V494.933z" fill="#b2b8bc"/>
	</g>
</g>
<g>
	<g>
		<path d="M475.366,275.558l-25.6-25.6c-3.268-3.251-8.516-3.345-11.87-0.188l-136.533,128c-2.56,2.398-3.388,6.11-2.099,9.37    c1.289,3.251,4.437,5.393,7.936,5.393h51.2c2.142,0,4.207-0.811,5.794-2.27l110.933-102.4c1.698-1.579,2.688-3.78,2.739-6.101    C477.909,279.441,477.005,277.197,475.366,275.558z M355.063,375.467h-26.291l114.765-107.588l13.474,13.474L355.063,375.467z" fill="#b2b8bc"/>
	</g>
</g>
<g>
	<g>
		
			<rect x="452.254" y="303.595" transform="matrix(0.9138 -0.4061 0.4061 0.9138 -100.6499 216.9147)" width="17.066" height="84.043" fill="#b2b8bc"/>
	</g>
</g>
<g>
	<g>
		<path d="M145.067,0C65.075,0,0,65.075,0,145.067v17.067c0,3.447,2.082,6.562,5.274,7.885c3.174,1.323,6.852,0.597,9.293-1.843    c15.497-15.471,40.713-15.471,56.209,0c3.328,3.328,8.73,3.328,12.058,0c15.497-15.471,40.713-15.471,56.209,0    c3.328,3.328,8.73,3.328,12.058,0c15.497-15.471,40.713-15.471,56.209,0c3.328,3.328,8.73,3.328,12.058,0    c15.488-15.471,40.721-15.479,56.201,0c1.63,1.621,3.814,2.492,6.033,2.492c1.101,0,2.21-0.213,3.268-0.649    c3.191-1.323,5.265-4.437,5.265-7.885v-17.067C290.133,65.075,225.058,0,145.067,0z M273.067,145.562    c-19.012-9.566-42.308-7.799-59.733,5.299c-10.069-7.569-22.101-11.358-34.133-11.358s-24.064,3.789-34.133,11.358    c-20.13-15.13-48.137-15.13-68.267,0c-17.425-13.099-40.721-14.874-59.733-5.299v-0.495c0-70.579,57.421-128,128-128    s128,57.421,128,128V145.562z" fill="#b2b8bc"/>
	</g>
</g>
<g>
	<g>
		<path d="M418.133,42.667c-28.237,0-51.2,22.963-51.2,51.2c0,28.237,22.963,51.2,51.2,51.2c28.237,0,51.2-22.963,51.2-51.2    C469.333,65.63,446.37,42.667,418.133,42.667z M418.133,128C399.309,128,384,112.691,384,93.867    c0-18.825,15.309-34.133,34.133-34.133s34.133,15.309,34.133,34.133C452.267,112.691,436.958,128,418.133,128z" fill="#b2b8bc"/>
	</g>
</g>
<g>
	<g>
		<rect x="409.6" width="17.067" height="25.6" fill="#b2b8bc"/>
	</g>
</g>
<g>
	<g>
		<rect x="486.4" y="85.333" width="25.6" height="17.067" fill="#b2b8bc"/>
	</g>
</g>
<g>
	<g>
		<rect x="324.267" y="85.333" width="25.6" height="17.067" fill="#b2b8bc"/>
	</g>
</g>
<g>
	<g>
		
			<rect x="462.68" y="28.002" transform="matrix(0.7071 -0.7071 0.7071 0.7071 113.4285 346.9106)" width="25.583" height="17.066" fill="#b2b8bc"/>
	</g>
</g>
<g>
	<g>
		
			<rect x="347.998" y="142.708" transform="matrix(0.7071 -0.7071 0.7071 0.7071 -1.271 299.4148)" width="25.583" height="17.066" fill="#b2b8bc"/>
	</g>
</g>
<g>
	<g>
		<rect x="466.932" y="138.41" transform="matrix(0.707 -0.7072 0.7072 0.707 32.378 380.5534)" width="17.067" height="25.583" fill="#b2b8bc"/>
	</g>
</g>
<g>
	<g>
		<rect x="352.246" y="23.693" transform="matrix(0.707 -0.7072 0.7072 0.707 79.903 265.8344)" width="17.067" height="25.583" fill="#b2b8bc"/>
	</g>
</g>
<g>
	<g>
		<rect x="409.6" y="162.133" width="17.067" height="25.6" fill="#b2b8bc"/>
	</g>
</g>
<g>
	<g>
		<rect x="136.533" y="162.133" width="17.067" height="221.867" fill="#b2b8bc"/>
	</g>
</g>
<g>
	<g>
		<rect x="136.533" y="418.133" width="17.067" height="93.867" fill="#b2b8bc"/>
	</g>
</g>
<g>
</g>
<g>
</g>
<g>
</g>
<g>
</g>
<g>
</g>
<g>
</g>
<g>
</g>
<g>
</g>
<g>
</g>
<g>
</g>
<g>
</g>
<g>
</g>
<g>
</g>
<g>
</g>
<g>
</g>
</svg>

<svg width="512" height="512" viewBox="0 0 512 512" fill="none" xmlns="http://www.w3.org/2000/svg">
<path d="M503.467 375.467H8.533C3.823 375.467 0 379.281 0 384V418.133C0 422.852 3.823 426.666 8.533 426.666H503.466C508.185 426.666 511.999 422.852 511.999 418.133V384C512 379.281 508.186 375.467 503.467 375.467ZM494.933 409.6H17.067V392.533H494.934V409.6H494.933Z" fill="#BC7045"/>
<path d="M503.467 409.6H469.334C464.615 409.6 460.801 413.414 460.801 418.133V503.466C460.801 508.185 464.615 511.999 469.334 511.999H503.467C508.186 511.999 512 508.185 512 503.466V418.133C512 413.414 508.186 409.6 503.467 409.6ZM494.933 494.933H477.866V426.666H494.933V494.933Z" fill="#BC7045"/>
<path d="M475.366 275.558L449.766 249.958C446.498 246.707 441.25 246.613 437.896 249.77L301.363 377.77C298.803 380.168 297.975 383.88 299.264 387.14C300.553 390.391 303.701 392.533 307.2 392.533H358.4C360.542 392.533 362.607 391.722 364.194 390.263L475.127 287.863C476.825 286.284 477.815 284.083 477.866 281.762C477.909 279.441 477.005 277.197 475.366 275.558ZM355.063 375.467H328.772L443.537 267.879L457.011 281.353L355.063 375.467Z" fill="#BC7045"/>
<path d="M451.505 303.749L435.91 310.68L470.04 387.478L485.634 380.548L451.505 303.749Z" fill="#BC7045"/>
<path d="M145.067 0C65.075 0 0 65.075 0 145.067V162.134C0 165.581 2.082 168.696 5.274 170.019C8.448 171.342 12.126 170.616 14.567 168.176C30.064 152.705 55.28 152.705 70.776 168.176C74.104 171.504 79.506 171.504 82.834 168.176C98.331 152.705 123.547 152.705 139.043 168.176C142.371 171.504 147.773 171.504 151.101 168.176C166.598 152.705 191.814 152.705 207.31 168.176C210.638 171.504 216.04 171.504 219.368 168.176C234.856 152.705 260.089 152.697 275.569 168.176C277.199 169.797 279.383 170.668 281.602 170.668C282.703 170.668 283.812 170.455 284.87 170.019C288.061 168.696 290.135 165.582 290.135 162.134V145.067C290.133 65.075 225.058 0 145.067 0ZM273.067 145.562C254.055 135.996 230.759 137.763 213.334 150.861C203.265 143.292 191.233 139.503 179.201 139.503C167.169 139.503 155.137 143.292 145.068 150.861C124.938 135.731 96.931 135.731 76.801 150.861C59.376 137.762 36.08 135.987 17.068 145.562V145.067C17.068 74.488 74.489 17.067 145.068 17.067C215.647 17.067 273.068 74.488 273.068 145.067V145.562H273.067Z" fill="#BC7045"/>
<path d="M418.133 42.667C389.896 42.667 366.933 65.63 366.933 93.867C366.933 122.104 389.896 145.067 418.133 145.067C446.37 145.067 469.333 122.104 469.333 93.867C469.333 65.63 446.37 42.667 418.133 42.667ZM418.133 128C399.309 128 384 112.691 384 93.867C384 75.042 399.309 59.734 418.133 59.734C436.957 59.734 452.266 75.043 452.266 93.867C452.267 112.691 436.958 128 418.133 128Z" fill="#BC7045"/>
<path d="M512 85.333H486.4V102.4H512V85.333Z" fill="#BC7045"/>
<path d="M349.867 85.333H324.267V102.4H349.867V85.333Z" fill="#BC7045"/>
<path d="M478.479 21.4601L460.39 39.5498L472.457 51.6172L490.547 33.5274L478.479 21.4601Z" fill="#BC7045"/>
<path d="M363.797 136.165L345.707 154.254L357.775 166.322L375.864 148.232L363.797 136.165Z" fill="#BC7045"/>
<path d="M472.449 136.125L460.383 148.195L478.475 166.282L490.541 154.212L472.449 136.125Z" fill="#BC7045"/>
<path d="M357.763 21.4073L345.697 33.4771L363.789 51.5642L375.855 39.4945L357.763 21.4073Z" fill="#BC7045"/>
<path d="M426.667 162.133H409.6V187.733H426.667V162.133Z" fill="#BC7045"/>
<path d="M153.6 162.133H136.533V384H153.6V162.133Z" fill="#BC7045"/>
<path d="M153.6 418.133H136.533V512H153.6V418.133Z" fill="#BC7045"/>
</svg>
